X:75
T:Confesse.
T:John Malchair's Third Collection of Tunes
%%VWML:Malchair-3619-p75
F:https://www.vwml.org/record/Malchair/3619/p75
F:www.vwml.org/topics/historic-dance-and-tune-books/Malchair
Z:Eric Conrad Mar 2020
% Note MS transcription uses old notation! Half notes, clef, time
% In the MS, the treble clef is positioned with G on the first line
M:C     % old: common time; modern 6/4
L:1/4
K:Gmin clef=G middle=d     % note the clef! position of G is the bottom line
%%text in the Dancing Master of 1652 it is printed thus.
G2 A B2 c [|] d2 d d2 d [|] e3 d2 d [|] g3 ^f3 ||
a2 f _b2 g [|] a2 f d2 e [|] f d2 ^c2 d [|] d ^c2 d3 [|] B2 c d3/2 _e/2 d [|] \
  _e d2 c3 [|] d2 g ^f2 g [|] a ^f2 g3 |]
W:% extra space
T:Confesse.
T:John Malchair's Third Collection of Tunes
F:https://www.vwml.org/record/Malchair/3619/p75
F:www.vwml.org/topics/historic-dance-and-tune-books/Malchair
% Z:Eric Conrad Mar 2020
M:6/4
L:1/4
K:Gmin clef=G middle=B          % usual treble clef (needed to restore treble clef)
%%text in a more modern Notation.
W:% extra space
G2A B2c | d2d d2d | e3 d2d | g3 ^f3 ||
a2f b2g | a2f d2=e | fd2 ^c2d | d^c2 d3 | B2c d>ed | \
  ed2 c3 | d2g ^f2g | a^f2 g3 |]
T:Parlalaw.
T:John Malchair's Third Collection of Tunes
F:https://www.vwml.org/record/Malchair/3619/p75
F:www.vwml.org/topics/historic-dance-and-tune-books/Malchair
Z:Eric Conrad Mar 2020
W:a German tune from Aird's Coll.
M:C
L:1/8
K:G
G2 | GBBd d>cBd | cB AG/F/ G3d | GBBd cB Ag | f/a/f/d/ e/g/e/^c/ d2-d ||
d | gf/g/ ef/g/ fe/f/ d2 | fe/f/ cd/e/ dc/d/ B2 | cBAG FE/D/ Gc | B/d/B/G/ A/c/A/F/ G2 G |]


